!! 00000] TT[00
!! NN
!!!OTL: Shenme hua kai shuang dui shuang
!!!ARE: Asia, China,ÿZhejiang, Chunan
!! Ethnic Group: Han
!! III, 643, 1)
!!!SCT: C0366
!!!YEM: Copyright 1995, estate of Helmut Schaffrath.
**kern
*ICvox
*Ivox
*M2/4
*k[f#]
*G:
{8a
16a
16b
8dd
8dd
=1
8ee
16dd
16b
4a
=2
16a
16b
8dd
8ee
16dd
16b
=3
16dd
16a
8b
4a
=4
16a
16g
4.e}
=5
{8e
8g
8a
8b
=6
16a
16b
8a
4g
=7
8a
8b
16a
16g
16e
16g
=8
4a
4r}
=9
{8.a
16b
8a
8g
=10
16e
16f#
16e
16d
4e
=11
16dd
8dd
16b
8a
16e
16g
=12
4a
4r}
=13
{16a
16b
8dd
8ee
16dd
16b
=14
16dd
16a
4b
8a
=15
16a
16g
4.e}
==
!!!AGN: Shange. Chang huahui
!! Vereinzelt Verzierungen.
!!!ONB: ESAC (Essen Associative Code) Database: CHINA
!!!AMT: simple duple
!!!AIN: vox
!!!EED: Helmut Schaffrath
!!!EEV: 1.0
*-
